dist/svgs/unicons/line/th-large.svg

<svg xmlns="http://www.w3.org/2000/svg" viewBox="0 0 24 24"><path d="M20 3H4a1 1 0 00-1 1v16a1 1 0 001 1h16a1 1 0 001-1V4a1 1 0 00-1-1zm-9 16H5v-6h6zm0-8H5V5h6zm8 8h-6v-6h6zm0-8h-6V5h6z"/></svg>

<svg xmlns="http://www.w3.org/2000/svg" viewBox="0 0 24 24"><path d="M20,3H4A1,1,0,0,0,3,4V20a1,1,0,0,0,1,1H20a1,1,0,0,0,1-1V4A1,1,0,0,0,20,3ZM11,19H5V13h6Zm0-8H5V5h6Zm8,8H13V13h6Zm0-8H13V5h6Z"/></svg>
